X:1
T:Johnie Scot
M:4/4
L:1/8
K:C
 G2| C2 E2 G2 AB| c2 d2 B- A2 G| A2 A2A-G E2| G6G-B| c3 AG-FE-D| A2 A2 G2C-D|\
 E2 DE C2 B,2| C6||
